X:8
T:Lichtmann 8
C:A. Vivaldi
M:3/4
L:1/8
Q:"Tranquillo" 1/4=60
K:G
!p!!tenuto!G"_dolce"(F/E/) !tenuto!D!tenuto!C !tenuto!B,!tenuto!A,|!tenuto!G,2G4-|G2 !tenuto!F!tenuto!E!tenuto!F2|G4!tenuto!B2|E4!tenuto!A2|!tenuto!F2!tenuto!D2!tenuto!G2|(cB) !tenuto!A3!tenuto!G|
!tenuto!G2G4-|G2(FE) D2|!tenuto!E2!tenuto!A,2A2-|A2 (GF) !tenuto!G2|!tenuto!F2 B4-|B2 (AG) !tenuto!F2|!tenuto!B2!tenuto!E3!tenuto!D|D6|]

